assets/images/partner-ymca-logo.svg

<svg height="221" preserveAspectRatio="none slice" viewBox="0 0 288 221" width="288" xmlns="http://www.w3.org/2000/svg"><g name="Layer 1"><path d="m258.829.939999h-82.891c-6.134 0-11.106 4.972001-11.106 11.105001 0 1.912.42 3.702 1.326 5.272l41.607 72.061c1.914 3.326 5.506 5.57 9.617 5.57 4.117 0 7.701-2.244 9.619-5.57l41.604-72.061c.908-1.57 1.328-3.36 1.328-5.272.001-6.133-4.966-11.105001-11.104-11.105001z" fill="#3faeee"/><g fill="#44b7b2"><path d="m275.863 6.957c0-3.349 2.715-6.068 6.074-6.068 3.352 0 6.062 2.719 6.062 6.068 0 3.352-2.711 6.071-6.062 6.071-3.359 0-6.074-2.719-6.074-6.071m1.252 0c.01 2.659 2.158 4.808 4.822 4.817 2.652-.009 4.803-2.158 4.811-4.817-.008-2.657-2.158-4.808-4.811-4.81-2.664.002-4.812 2.153-4.822 4.81z"/><path d="m393 248h288v221h-288z" fill-rule="evenodd"/><path d="m284.217 10.003h-.578c-.225 0-.344-.027-.51-.221l-1.645-2.056h-.438v1.948c0 .248-.102.329-.314.329h-.4c-.273 0-.367-.053-.367-.329v-5.453c0-.296.174-.307.367-.307h1.754c1 0 1.209.059 1.566.413.312.326.463.892.463 1.703 0 1.025-.412 1.601-1.344 1.67l1.562 1.866c.181.216.149.437-.116.437m-1.475-5.117c-.244-.12-1.385-.065-1.695-.065v1.999h1.162c.412 0 .607-.067.719-.207.064-.107.131-.218.131-.665 0-.672-.108-.949-.317-1.062z"/><path d="m129.777 103.246c0 .01.01.017.01.022v-.009zm73.032 1.39-.457-.79-52.35-90.674c-4.363-7.559-12.729-12.231998-22.022-12.231998h-42.431c-4.733 0-8.571 3.839998-8.571 8.569998 0 1.471.34 2.881 1.024 4.06l51.785 89.698c2.369 4.031 3.728 8.722 3.728 13.735 0 4.864-1.281 9.424-3.517 13.371l-45.029 78.001c-.683 1.172-1.021 2.584-1.021 4.057 0 4.734 3.836 8.568 8.57 8.568h43.537c9.289 0 17.658-4.67 22.021-12.228l.896-1.56 43.299-74.998.807-1.395c2.207-3.827 3.227-8.203 3.227-12.854 0-4.846-1.242-9.423-3.496-13.329z"/><path d="m83.18 140.865c-.793 0-1.584.327-2.309.457-2.436.527-5.139 1.058-8.037 1.058-1.582 0-3.035-.332-3.957-.726-2.041-.921-2.238-3.493-2.174-6.792h16.079c2.306 0 2.767-.392 2.767-4.016 0-4.223-.392-8.371-2.435-11.334-1.911-2.703-5.208-4.089-10.677-4.089-5.798 0-9.427 1.517-11.4 4.353-2.047 2.896-2.641 6.785-2.641 12.582 0 6.53.924 10.817 3.695 13.385 2.173 2.042 5.735 3.09 10.68 3.09 2.831 0 6.717-.261 9.942-.856 2.047-.327 2.375-1.378 2.375-2.898 0-.726 0-1.518-.127-2.173-.201-.858-.795-2.041-1.781-2.041m-16.477-12.395c0-4.807.992-6.453 5.734-6.453 4.483 0 5.071 1.709 5.071 5.795v1.255h-10.805zm-23.548-13.046c-3.562 0-6.722 1.184-8.902 2.239v-12.191c0-1.251-.524-2.838-2.566-2.838h-2.965c-1.91 0-2.899.594-2.899 2.838v39.875c0 1.578.526 2.629 2.375 2.629h3.489c2.042 0 2.566-1.119 2.566-2.964v-15.102c0-4.726.978-6.338 5.633-6.338 4.406 0 4.988 1.679 4.988 5.688v1.232h-.018c.01.635.016 1.357.016 2.168v12.352c0 1.98.654 2.964 2.368 2.964h3.5c2.035 0 2.566-1.119 2.566-2.964v-20.227c0-4.29-2.045-9.361-10.151-9.361z"/><path d="m18.977 123.327h-7.115v13.25c0 3.095.133 4.283.396 4.808.198.335.532.529.987.529 1.849 0 3.884-.987 5.406-.987 1.451 0 1.783 1.12 1.783 1.841v2.373c0 2.439-.664 3.103-2.769 3.298-2.11.196-3.559.328-5.739.328-6.989 0-8.5-2.57-8.5-10.413v-15.026h-1.846c-1.248 0-1.58-.855-1.58-1.908v-2.836c0-1.65.656-2.174 1.777-2.174h1.649v-5.34c0-2.24.922-2.902 2.834-2.902h2.967c2.041 0 2.635 1.648 2.635 2.902v5.34h6.461c1.447 0 2.24.198 2.24 2.109v2.304c0 2.239-.398 2.504-1.586 2.504z"/></g><path d="m174.128 200.225 5.053 8.552 4.775 2.756c.662.384.797.88.422 1.517l-.541.961c-.43.733-.824.945-1.598.496l-4.598-2.654-10.481-.123c-.293.007-.572-.034-.773-.151-.549-.317-.414-.92-.205-1.278l.689-1.195c.383-.665.756-.745 1.287-.737l7.179.144-3.701-6.226c-.268-.45-.364-.806.021-1.471l.566-.976c.334-.582.795-.668 1.219-.422.266.151.539.549.686.807z" fill="#3faeee"/><path d="m196.514 192.042-.539.93c-.383.664-.857.715-1.508.402l-9.376-4.642c.388.461.945 1.079 1.377 1.563 1.676 1.976 3.5 4.006 4.571 5.369.43.543.584.991.164 1.715l-.332.582c-.426.734-.876.804-1.562.701-1.713-.25-4.413-.767-6.963-1.234-.646-.106-1.436-.326-2.029-.43l8.705 5.804c.602.406.793.845.412 1.502l-.541.937c-.398.687-.867 1.035-1.652.496l-12.277-8.604c-.76-.526-.567-1.065-.258-1.601l.705-1.222c.357-.618.74-.816 1.344-.734 2.521.359 6.938 1.219 10.326 1.811-2.209-2.633-5.166-6.028-6.736-8.032-.371-.481-.391-.906-.031-1.528l.703-1.222c.309-.531.682-.97 1.516-.578l13.585 6.336c.859.4.794.986.396 1.679z" fill="#3faeee"/><path d="m203.475 180.39c-.486.998-.758 1.57-1.35 2.595-.477.825-1.117 1.787-1.781 2.468-2.541 2.655-5.602 1.803-9.447-.416-6.528-3.771-6.558-6.541-4.058-10.873.594-1.023.955-1.554 1.574-2.47.592-.873.949-.992 1.449-.703l.731.421c.795.459.984.75.574 1.454-.475.828-.818 1.164-1.497 2.341-.414.711-1.012 1.903-1.088 2.602-.178 1.642 1.554 2.699 4.108 4.168 2.512 1.453 4.541 2.453 6.01.727.299-.361.705-.957 1.102-1.645.68-1.178.803-1.645 1.273-2.469.408-.709.752-.687 1.555-.224l.734.421c.488.281.572.656.111 1.603z" fill="#3faeee"/><path d="m211.623 165.868-.705 1.221c-.398.688-.844.697-1.381.594l-3.344-.621c-.529.97-.936 1.679-1.505 2.654-.536.933-1.011 1.758-1.493 2.539l2.105 2.406c.486.545.715.916.277 1.666l-.588 1.028c-.438.758-.701.75-1.031.556-.135-.072-.365-.296-.588-.576l-10.078-11.888c-.547-.648-.719-1.07-.242-1.889l.523-.909c.473-.826.93-.892 1.736-.75l15.719 2.678c.139.019.273.041.391.106.55.319.409.828.204 1.185m-14.471-.537 4.211 4.809c.297-.516.621-1.127.992-1.768.398-.693.691-1.148 1.062-1.791z" fill="#3faeee"/></g></svg>

<?xml version="1.0"?>
<svg version="1.1" xmlns="http://www.w3.org/2000/svg" xmlns:xlink="http://www.w3.org/1999/xlink" width="288" height="221" viewBox="0 0 288 221" preserveAspectRatio="none slice">
    <desc iVinci="yes" version="4.6" gridStep="20" showGrid="no" snapToGrid="no" codePlatform="0"/>
    <g id="Layer1" name="Layer 1" opacity="1">
        <g id="Shape1">
            <desc shapeID="1" type="0" basicInfo-basicType="0" basicInfo-roundedRectRadius="12" basicInfo-polygonSides="6" basicInfo-starPoints="5" bounding="rect(-52.5505,-47.004,105.101,94.008)" text="" font-familyName="" font-pixelSize="20" font-bold="0" font-underline="0" font-alignment="1" strokeStyle="0" markerStart="0" markerEnd="0" shadowEnabled="0" shadowOffsetX="0" shadowOffsetY="2" shadowBlur="4" shadowOpacity="160" blurEnabled="0" blurRadius="4" transform="matrix(1,0,0,1,217.383,47.944)" pers-center="0,0" pers-size="0,0" pers-start="0,0" pers-end="0,0" locked="0" mesh="" flag=""/>
            <path id="shapePath1" d="M258.829,0.939999 L175.938,0.939999 C169.804,0.939999 164.832,5.912 164.832,12.045 C164.832,13.957 165.252,15.747 166.158,17.317 L207.765,89.378 C209.679,92.704 213.271,94.948 217.382,94.948 C221.499,94.948 225.083,92.704 227.001,89.378 L268.605,17.317 C269.513,15.747 269.933,13.957 269.933,12.045 C269.934,5.912 264.967,0.939999 258.829,0.939999 Z" style="stroke:none;fill-rule:nonzero;fill:#3FAEEE;fill-opacity:1;"/>
        </g>
        <g id="Shape2">
            <desc shapeID="2" type="0" basicInfo-basicType="0" basicInfo-roundedRectRadius="12" basicInfo-polygonSides="6" basicInfo-starPoints="5" bounding="rect(-6.06799,-6.0695,12.136,12.139)" text="" font-familyName="" font-pixelSize="20" font-bold="0" font-underline="0" font-alignment="1" strokeStyle="0" markerStart="0" markerEnd="0" shadowEnabled="0" shadowOffsetX="0" shadowOffsetY="2" shadowBlur="4" shadowOpacity="160" blurEnabled="0" blurRadius="4" transform="matrix(1,0,0,1,281.931,6.9585)" pers-center="0,0" pers-size="0,0" pers-start="0,0" pers-end="0,0" locked="0" mesh="" flag=""/>
            <path id="shapePath2" d="M275.863,6.957 C275.863,3.608 278.578,0.889 281.937,0.889 C285.289,0.889 287.999,3.608 287.999,6.957 C287.999,10.309 285.288,13.028 281.937,13.028 C278.578,13.028 275.863,10.309 275.863,6.957 M277.115,6.957 C277.125,9.616 279.273,11.765 281.937,11.774 C284.589,11.765 286.74,9.616 286.748,6.957 C286.74,4.3 284.59,2.149 281.937,2.147 C279.273,2.149 277.125,4.3 277.115,6.957 Z" style="stroke:none;fill-rule:nonzero;fill:#44B7B2;fill-opacity:1;"/>
        </g>
        <g id="Shape3">
            <desc shapeID="3" type="0" basicInfo-basicType="0" basicInfo-roundedRectRadius="12" basicInfo-polygonSides="6" basicInfo-starPoints="5" bounding="rect(-144,-110.5,288,221)" text="" font-familyName="" font-pixelSize="20" font-bold="0" font-underline="0" font-alignment="1" strokeStyle="0" markerStart="0" markerEnd="0" shadowEnabled="0" shadowOffsetX="0" shadowOffsetY="2" shadowBlur="4" shadowOpacity="160" blurEnabled="0" blurRadius="4" transform="matrix(1,0,0,1,537,358.5)" pers-center="0,0" pers-size="0,0" pers-start="0,0" pers-end="0,0" locked="0" mesh="" flag=""/>
            <path id="shapePath3" d="M393,248 L681,248 L681,469 L393,469 L393,248 Z" style="stroke:none;fill-rule:evenodd;fill:#44B7B2;fill-opacity:1;"/>
        </g>
        <g id="Shape4">
            <desc shapeID="4" type="0" basicInfo-basicType="0" basicInfo-roundedRectRadius="12" basicInfo-polygonSides="6" basicInfo-starPoints="5" bounding="rect(-2.24094,-3.0445,4.48187,6.089)" text="" font-familyName="" font-pixelSize="20" font-bold="0" font-underline="0" font-alignment="1" strokeStyle="0" markerStart="0" markerEnd="0" shadowEnabled="0" shadowOffsetX="0" shadowOffsetY="2" shadowBlur="4" shadowOpacity="160" blurEnabled="0" blurRadius="4" transform="matrix(1,0,0,1,282.206,6.9585)" pers-center="0,0" pers-size="0,0" pers-start="0,0" pers-end="0,0" locked="0" mesh="" flag=""/>
            <path id="shapePath4" d="M284.217,10.003 L283.639,10.003 C283.414,10.003 283.295,9.976 283.129,9.782 L281.484,7.726 L281.046,7.726 L281.046,9.674 C281.046,9.922 280.944,10.003 280.732,10.003 L280.332,10.003 C280.059,10.003 279.965,9.95 279.965,9.674 L279.965,4.221 C279.965,3.925 280.139,3.914 280.332,3.914 L282.086,3.914 C283.086,3.914 283.295,3.973 283.652,4.327 C283.964,4.653 284.115,5.219 284.115,6.03 C284.115,7.055 283.703,7.631 282.771,7.7 L284.333,9.566 C284.514,9.782 284.482,10.003 284.217,10.003 M282.742,4.886 C282.498,4.766 281.357,4.821 281.047,4.821 L281.047,6.82 L282.209,6.82 C282.621,6.82 282.816,6.753 282.928,6.613 C282.992,6.506 283.059,6.395 283.059,5.948 C283.059,5.276 282.951,4.999 282.742,4.886 Z" style="stroke:none;fill-rule:nonzero;fill:#44B7B2;fill-opacity:1;"/>
        </g>
        <g id="Shape5">
            <desc shapeID="5" type="0" basicInfo-basicType="0" basicInfo-roundedRectRadius="12" basicInfo-polygonSides="6" basicInfo-starPoints="5" bounding="rect(-64.6635,-110.03,129.327,220.06)" text="" font-familyName="" font-pixelSize="20" font-bold="0" font-underline="0" font-alignment="1" strokeStyle="0" markerStart="0" markerEnd="0" shadowEnabled="0" shadowOffsetX="0" shadowOffsetY="2" shadowBlur="4" shadowOpacity="160" blurEnabled="0" blurRadius="4" transform="matrix(1,0,0,1,141.641,110.97)" pers-center="0,0" pers-size="0,0" pers-start="0,0" pers-end="0,0" locked="0" mesh="" flag=""/>
            <path id="shapePath5" d="M129.777,103.246 C129.777,103.256 129.787,103.263 129.787,103.268 L129.787,103.259 L129.777,103.246 M202.809,104.636 L202.352,103.846 L150.002,13.172 C145.639,5.613 137.273,0.940002 127.98,0.940002 L85.549,0.940002 C80.816,0.940002 76.978,4.78 76.978,9.51 C76.978,10.981 77.318,12.391 78.002,13.57 L129.787,103.268 C132.156,107.299 133.515,111.99 133.515,117.003 C133.515,121.867 132.234,126.427 129.998,130.374 L84.969,208.375 C84.286,209.547 83.948,210.959 83.948,212.432 C83.948,217.166 87.784,221 92.518,221 L136.055,221 C145.344,221 153.713,216.33 158.076,208.772 L158.972,207.212 L202.271,132.214 L203.078,130.819 C205.285,126.992 206.305,122.616 206.305,117.965 C206.305,113.119 205.063,108.542 202.809,104.636 Z" style="stroke:none;fill-rule:nonzero;fill:#44B7B2;fill-opacity:1;"/>
        </g>
        <g id="Shape6">
            <desc shapeID="6" type="0" basicInfo-basicType="0" basicInfo-roundedRectRadius="12" basicInfo-polygonSides="6" basicInfo-starPoints="5" bounding="rect(-29.863,-23.0995,59.726,46.199)" text="" font-familyName="" font-pixelSize="20" font-bold="0" font-underline="0" font-alignment="1" strokeStyle="0" markerStart="0" markerEnd="0" shadowEnabled="0" shadowOffsetX="0" shadowOffsetY="2" shadowBlur="4" shadowOpacity="160" blurEnabled="0" blurRadius="4" transform="matrix(1,0,0,1,55.686,125.733)" pers-center="0,0" pers-size="0,0" pers-start="0,0" pers-end="0,0" locked="0" mesh="" flag=""/>
            <path id="shapePath6" d="M83.18,140.865 C82.387,140.865 81.596,141.192 80.871,141.322 C78.435,141.849 75.732,142.38 72.834,142.38 C71.252,142.38 69.799,142.048 68.877,141.654 C66.836,140.733 66.639,138.161 66.703,134.862 L82.782,134.862 C85.088,134.862 85.549,134.47 85.549,130.846 C85.549,126.623 85.157,122.475 83.114,119.512 C81.203,116.809 77.906,115.423 72.437,115.423 C66.639,115.423 63.01,116.94 61.037,119.776 C58.99,122.672 58.396,126.561 58.396,132.358 C58.396,138.888 59.32,143.175 62.091,145.743 C64.264,147.785 67.826,148.833 72.771,148.833 C75.602,148.833 79.488,148.572 82.713,147.977 C84.76,147.65 85.088,146.599 85.088,145.079 C85.088,144.353 85.088,143.561 84.961,142.906 C84.76,142.048 84.166,140.865 83.18,140.865 M66.703,128.47 C66.703,123.663 67.695,122.017 72.437,122.017 C76.92,122.017 77.508,123.726 77.508,127.812 C77.508,127.812 77.508,128.597 77.508,129.067 L66.703,129.067 L66.703,128.47 M43.155,115.424 C39.593,115.424 36.433,116.608 34.253,117.663 L34.253,105.472 C34.253,104.221 33.729,102.634 31.687,102.634 L28.722,102.634 C26.812,102.634 25.823,103.228 25.823,105.472 L25.823,145.347 C25.823,146.925 26.349,147.976 28.198,147.976 L31.687,147.976 C33.729,147.976 34.253,146.857 34.253,145.012 L34.253,129.91 C34.253,125.184 35.231,123.572 39.886,123.572 C44.292,123.572 44.874,125.251 44.874,129.26 C44.874,129.26 44.874,130.039 44.874,130.492 L44.856,130.492 C44.866,131.127 44.872,131.849 44.872,132.66 L44.872,145.012 C44.872,146.992 45.526,147.976 47.24,147.976 L50.74,147.976 C52.775,147.976 53.306,146.857 53.306,145.012 L53.306,124.785 C53.306,120.495 51.261,115.424 43.155,115.424 Z" style="stroke:none;fill-rule:nonzero;fill:#44B7B2;fill-opacity:1;"/>
        </g>
        <g id="Shape7">
            <desc shapeID="7" type="0" basicInfo-basicType="0" basicInfo-roundedRectRadius="12" basicInfo-polygonSides="6" basicInfo-starPoints="5" bounding="rect(-10.2815,-20.2995,20.563,40.599)" text="" font-familyName="" font-pixelSize="20" font-bold="0" font-underline="0" font-alignment="1" strokeStyle="0" markerStart="0" markerEnd="0" shadowEnabled="0" shadowOffsetX="0" shadowOffsetY="2" shadowBlur="4" shadowOpacity="160" blurEnabled="0" blurRadius="4" transform="matrix(1,0,0,1,10.2815,128.467)" pers-center="0,0" pers-size="0,0" pers-start="0,0" pers-end="0,0" locked="0" mesh="" flag=""/>
            <path fill="#44B7B2" id="shapePath7" d="M18.977,123.327 L11.862,123.327 L11.862,136.577 C11.862,139.672 11.995,140.86 12.258,141.385 C12.456,141.72 12.79,141.914 13.245,141.914 C15.094,141.914 17.129,140.927 18.651,140.927 C20.102,140.927 20.434,142.047 20.434,142.768 L20.434,145.141 C20.434,147.58 19.77,148.244 17.665,148.439 C15.555,148.635 14.106,148.767 11.926,148.767 C4.937,148.767 3.426,146.197 3.426,138.354 L3.426,123.328 L1.58,123.328 C0.332,123.328 0,122.473 0,121.42 L0,118.584 C0,116.934 0.656,116.41 1.777,116.41 L3.426,116.41 L3.426,111.07 C3.426,108.83 4.348,108.168 6.26,108.168 L9.227,108.168 C11.268,108.168 11.862,109.816 11.862,111.07 L11.862,116.41 L18.323,116.41 C19.77,116.41 20.563,116.608 20.563,118.519 L20.563,120.823 C20.563,123.062 20.165,123.327 18.977,123.327 Z" style="stroke:none;fill-rule:nonzero;fill:#44B7B2;fill-opacity:1;"/>
        </g>
        <g id="Shape8">
            <desc shapeID="8" type="0" basicInfo-basicType="0" basicInfo-roundedRectRadius="12" basicInfo-polygonSides="6" basicInfo-starPoints="5" bounding="rect(-9.29217,-7.72645,18.5843,15.4529)" text="" font-familyName="" font-pixelSize="20" font-bold="0" font-underline="0" font-alignment="1" strokeStyle="0" markerStart="0" markerEnd="0" shadowEnabled="0" shadowOffsetX="0" shadowOffsetY="2" shadowBlur="4" shadowOpacity="160" blurEnabled="0" blurRadius="4" transform="matrix(1,0,0,1,175.292,207.015)" pers-center="0,0" pers-size="0,0" pers-start="0,0" pers-end="0,0" locked="0" mesh="" flag=""/>
            <path id="shapePath8" d="M174.128,200.225 L179.181,208.777 L183.956,211.533 C184.618,211.917 184.753,212.413 184.378,213.05 L183.837,214.011 C183.407,214.744 183.013,214.956 182.239,214.507 L177.641,211.853 L167.16,211.73 C166.867,211.737 166.588,211.696 166.387,211.579 C165.838,211.262 165.973,210.659 166.182,210.301 L166.871,209.106 C167.254,208.441 167.627,208.361 168.158,208.369 L175.337,208.513 L171.636,202.287 C171.368,201.837 171.272,201.481 171.657,200.816 L172.223,199.84 C172.557,199.258 173.018,199.172 173.442,199.418 C173.708,199.569 173.981,199.967 174.128,200.225 Z" style="stroke:none;fill-rule:nonzero;fill:#3FAEEE;fill-opacity:1;"/>
        </g>
        <g id="Shape9">
            <desc shapeID="9" type="0" basicInfo-basicType="0" basicInfo-roundedRectRadius="12" basicInfo-polygonSides="6" basicInfo-starPoints="5" bounding="rect(-11.181,-11.062,22.362,22.124)" text="" font-familyName="" font-pixelSize="20" font-bold="0" font-underline="0" font-alignment="1" strokeStyle="0" markerStart="0" markerEnd="0" shadowEnabled="0" shadowOffsetX="0" shadowOffsetY="2" shadowBlur="4" shadowOpacity="160" blurEnabled="0" blurRadius="4" transform="matrix(1,0,0,1,185.615,194.939)" pers-center="0,0" pers-size="0,0" pers-start="0,0" pers-end="0,0" locked="0" mesh="" flag=""/>
            <path id="shapePath9" d="M196.514,192.042 L195.975,192.972 C195.592,193.636 195.118,193.687 194.467,193.374 L185.091,188.732 C185.479,189.193 186.036,189.811 186.468,190.295 C188.144,192.271 189.968,194.301 191.039,195.664 C191.469,196.207 191.623,196.655 191.203,197.379 L190.871,197.961 C190.445,198.695 189.995,198.765 189.309,198.662 C187.596,198.412 184.896,197.895 182.346,197.428 C181.7,197.322 180.91,197.102 180.317,196.998 L189.022,202.802 C189.624,203.208 189.815,203.647 189.434,204.304 L188.893,205.241 C188.495,205.928 188.026,206.276 187.241,205.737 L174.964,197.133 C174.204,196.607 174.397,196.068 174.706,195.532 L175.411,194.31 C175.768,193.692 176.151,193.494 176.755,193.576 C179.276,193.935 183.693,194.795 187.081,195.387 C184.872,192.754 181.915,189.359 180.345,187.355 C179.974,186.874 179.954,186.449 180.314,185.827 L181.017,184.605 C181.326,184.074 181.699,183.635 182.533,184.027 L196.118,190.363 C196.977,190.763 196.912,191.349 196.514,192.042 Z" style="stroke:none;fill-rule:nonzero;fill:#3FAEEE;fill-opacity:1;"/>
        </g>
        <g id="Shape10">
            <desc shapeID="10" type="0" basicInfo-basicType="0" basicInfo-roundedRectRadius="12" basicInfo-polygonSides="6" basicInfo-starPoints="5" bounding="rect(-9.2382,-8.12647,18.4764,16.253)" text="" font-familyName="" font-pixelSize="20" font-bold="0" font-underline="0" font-alignment="1" strokeStyle="0" markerStart="0" markerEnd="0" shadowEnabled="0" shadowOffsetX="0" shadowOffsetY="2" shadowBlur="4" shadowOpacity="160" blurEnabled="0" blurRadius="4" transform="matrix(1,0,0,1,194.541,178.977)" pers-center="0,0" pers-size="0,0" pers-start="0,0" pers-end="0,0" locked="0" mesh="" flag=""/>
            <path id="shapePath10" d="M203.475,180.39 C202.989,181.388 202.717,181.96 202.125,182.985 C201.648,183.81 201.008,184.772 200.344,185.453 C197.803,188.108 194.742,187.256 190.897,185.037 C184.369,181.266 184.339,178.496 186.839,174.164 C187.433,173.141 187.794,172.61 188.413,171.694 C189.005,170.821 189.362,170.702 189.862,170.991 L190.593,171.412 C191.388,171.871 191.577,172.162 191.167,172.866 C190.692,173.694 190.349,174.03 189.67,175.207 C189.256,175.918 188.658,177.11 188.582,177.809 C188.404,179.451 190.136,180.508 192.69,181.977 C195.202,183.43 197.231,184.43 198.7,182.704 C198.999,182.343 199.405,181.747 199.802,181.059 C200.482,179.881 200.605,179.414 201.075,178.59 C201.483,177.881 201.827,177.903 202.63,178.366 L203.364,178.787 C203.852,179.068 203.936,179.443 203.475,180.39 Z" style="stroke:none;fill-rule:nonzero;fill:#3FAEEE;fill-opacity:1;"/>
        </g>
        <g id="Shape11">
            <desc shapeID="11" type="0" basicInfo-basicType="0" basicInfo-roundedRectRadius="12" basicInfo-polygonSides="6" basicInfo-starPoints="5" bounding="rect(-9.51652,-8.09073,19.033,16.1815)" text="" font-familyName="" font-pixelSize="20" font-bold="0" font-underline="0" font-alignment="1" strokeStyle="0" markerStart="0" markerEnd="0" shadowEnabled="0" shadowOffsetX="0" shadowOffsetY="2" shadowBlur="4" shadowOpacity="160" blurEnabled="0" blurRadius="4" transform="matrix(1,0,0,1,202.288,169.931)" pers-center="0,0" pers-size="0,0" pers-start="0,0" pers-end="0,0" locked="0" mesh="" flag=""/>
            <path fill="#44B7B2" id="shapePath11" d="M211.623,165.868 L210.918,167.089 C210.52,167.777 210.074,167.786 209.537,167.683 L206.193,167.062 C205.664,168.032 205.257,168.741 204.688,169.716 C204.152,170.649 203.677,171.474 203.195,172.255 L205.3,174.661 C205.786,175.206 206.015,175.577 205.577,176.327 L204.989,177.355 C204.551,178.113 204.288,178.105 203.958,177.911 C203.823,177.839 203.593,177.615 203.37,177.335 L193.292,165.447 C192.745,164.799 192.573,164.377 193.05,163.558 L193.573,162.649 C194.046,161.823 194.503,161.757 195.309,161.899 L211.028,164.577 C211.167,164.596 211.301,164.618 211.419,164.683 C211.969,165.002 211.828,165.511 211.623,165.868 M197.152,165.331 L201.363,170.14 C201.66,169.624 201.984,169.013 202.355,168.372 C202.753,167.679 203.046,167.224 203.417,166.581 L197.152,165.331 Z" style="stroke:none;fill-rule:nonzero;fill:#3FAEEE;fill-opacity:1;"/>
        </g>
    </g>
</svg>
